images/UpgradeGraphics/BCHUpgrades_Icons/21.svg

<svg xmlns="http://www.w3.org/2000/svg" fill="none" viewBox="13.74 0 928.07 639.16" xmlns:v="https://vecta.io/nano"><path d="M217.585 288.494l380.438 202.658L401.689 629.21 13.738 422.048l203.847-133.554z" fill="url(#A)" style="mix-blend-mode:screen"/><path d="M368.665 521.528L704.273 310.83L941.806 424.309L598.72 639.157L368.665 521.528Z" fill="url(#B)" style="mix-blend-mode:screen"/><rect width="483.705" height="477.538" rx="57" transform="matrix(.867265 .497847 -.867265 .497847 482.5 118.448)" fill="#13e5b6"/><rect width="483.705" height="477.538" rx="57" transform="matrix(.867265 .497847 -.867265 .497847 482.148 106)" fill="url(#C)"/><rect width="483.705" height="477.538" rx="57" transform="matrix(.867265 .497847 -.867265 .497847 477.148 83)" fill="url(#D)"/><rect width="221.779" height="203.028" rx="57" transform="matrix(.872565 .488498 -.872565 .488498 457.516 106.041)" fill="url(#E)" style="mix-blend-mode:screen"/><rect width="221.779" height="203.028" rx="57" transform="matrix(.872565 .488498 -.872565 .488498 461.156 0)" fill="url(#E)"/><rect width="221.779" height="203.028" rx="57" transform="matrix(.872565 .488498 -.872565 .488498 475.156 251)" fill="url(#E)" style="mix-blend-mode:screen"/><rect width="221.779" height="203.028" rx="57" transform="matrix(.872565 .488498 -.872565 .488498 474.336 329.22)" fill="url(#F)" style="mix-blend-mode:screen"/><rect width="221.779" height="203.028" rx="57" transform="matrix(.872565 .488498 -.872565 .488498 275.805 209.8)" fill="url(#E)" style="mix-blend-mode:screen"/><rect width="221.779" height="203.028" rx="57" transform="matrix(.872565 .488498 -.872565 .488498 660.078 218.937)" fill="url(#G)" style="mix-blend-mode:screen"/><path d="M619.765 279.24c-16.27-1.871-30.608 6.408-27.367 15.801l8.1 23.479c3.632 10.528 26.128 14.466 39.276 6.875l1.379-.796 68.699 39.664 25.648-1.871 3.698-15.073-68.699-39.663 1.841-1.063c13.148-7.591 6.327-20.579-11.909-22.676l-40.666-4.677zm-285.903 70.374c16.337 1.137 30.289-7.779 26.628-17.017l-9.15-23.09c-4.103-10.354-26.754-13.275-39.546-5.099l-1.342.857-70.416-36.528-25.537 3.024-3.016 15.224 70.416 36.528-1.791 1.145c-12.792 8.175-5.393 20.843 12.918 22.116l40.836 2.84z" style="mix-blend-mode:screen" fill-rule="evenodd" fill="#fff"/><defs><linearGradient id="A" x1="217.344" y1="531.015" x2="331.785" y2="353.16" href="#H"><stop offset=".082" stop-color="#fff" stop-opacity="0"/><stop offset=".257" stop-color="#fff" stop-opacity="0"/><stop offset=".629" stop-color="#bbfae9" stop-opacity=".286"/><stop offset="1" stop-color="#13edb1"/></linearGradient><linearGradient id="B" x1="779.191" y1="526.405" x2="687.744" y2="349.095" href="#H"><stop offset=".082" stop-color="#fff" stop-opacity="0"/><stop offset=".257" stop-color="#fff" stop-opacity="0"/><stop offset=".629" stop-color="#bbfae9" stop-opacity=".286"/><stop offset="1" stop-color="#13edb1"/></linearGradient><linearGradient id="C" x1="246.922" y1="477.538" x2="356.204" y2="29.103" href="#H"><stop stop-color="#fff" stop-opacity=".49"/><stop offset="1" stop-color="#13edb1" stop-opacity=".69"/></linearGradient><linearGradient id="D" x1="241.852" y1="0" x2="241.852" y2="477.538" href="#H"><stop offset="1" stop-color="#13b3d3"/></linearGradient><linearGradient id="E" x1="183.297" y1="203.028" x2="36.197" y2="1.669" href="#H"><stop stop-color="#13edb1" stop-opacity=".88"/><stop offset="1" stop-color="#13b3d3" stop-opacity=".88"/></linearGradient><linearGradient id="F" x1="77.703" y1="203.028" x2="209.774" y2="141.866" href="#H"><stop stop-color="#13edb1" stop-opacity=".88"/><stop offset="1" stop-color="#13b3d3" stop-opacity=".88"/></linearGradient><linearGradient id="G" x1="183.297" y1="203.028" x2="36.197" y2="1.669" href="#H"><stop stop-color="#13edb1" stop-opacity=".71"/><stop offset="1" stop-color="#13b3d3" stop-opacity=".71"/></linearGradient><linearGradient id="H" gradientUnits="userSpaceOnUse"/></defs></svg>

<svg xmlns="http://www.w3.org/2000/svg" fill="none" viewBox="13.74 0 928.07 639.16">
<g id="Group 141">
<g id="Rectangle 129" style="mix-blend-mode:screen">
<path d="M217.585 288.494L598.023 491.152L401.689 629.21L13.7382 422.048L217.585 288.494Z" fill="url(#paint0_linear_171_24)"/>
</g>
<g id="Rectangle 130" style="mix-blend-mode:screen">
<path d="M368.665 521.528L704.273 310.83L941.806 424.309L598.72 639.157L368.665 521.528Z" fill="url(#paint1_linear_171_24)"/>
</g>
<rect id="Rectangle 132" width="483.705" height="477.538" rx="57" transform="matrix(0.867265 0.497847 -0.867265 0.497847 482.5 118.448)" fill="#13E5B6"/>
<rect id="Rectangle 133" width="483.705" height="477.538" rx="57" transform="matrix(0.867265 0.497847 -0.867265 0.497847 482.148 106)" fill="url(#paint2_linear_171_24)"/>
<rect id="Rectangle 131" width="483.705" height="477.538" rx="57" transform="matrix(0.867265 0.497847 -0.867265 0.497847 477.148 83)" fill="url(#paint3_linear_171_24)"/>
<g id="Group 15" style="mix-blend-mode:screen">
<rect id="Rectangle 132_2" width="221.779" height="203.028" rx="57" transform="matrix(0.872565 0.488498 -0.872565 0.488498 457.516 106.041)" fill="url(#paint4_linear_171_24)"/>
</g>
<rect id="Rectangle 132_3" width="221.779" height="203.028" rx="57" transform="matrix(0.872565 0.488498 -0.872565 0.488498 461.156 0)" fill="url(#paint5_linear_171_24)"/>
<g id="Group 15_2" style="mix-blend-mode:screen">
<rect id="Rectangle 132_4" width="221.779" height="203.028" rx="57" transform="matrix(0.872565 0.488498 -0.872565 0.488498 475.156 251)" fill="url(#paint6_linear_171_24)"/>
</g>
<g id="Group 18">
<g id="Rectangle 132_5" style="mix-blend-mode:screen">
<rect width="221.779" height="203.028" rx="57" transform="matrix(0.872565 0.488498 -0.872565 0.488498 474.336 329.22)" fill="url(#paint7_linear_171_24)"/>
</g>
</g>
<g id="Group 17" style="mix-blend-mode:screen">
<rect id="Rectangle 132_6" width="221.779" height="203.028" rx="57" transform="matrix(0.872565 0.488498 -0.872565 0.488498 275.805 209.8)" fill="url(#paint8_linear_171_24)"/>
</g>
<g id="Group 16" style="mix-blend-mode:screen">
<rect id="Rectangle 132_7" width="221.779" height="203.028" rx="57" transform="matrix(0.872565 0.488498 -0.872565 0.488498 660.078 218.937)" fill="url(#paint9_linear_171_24)"/>
</g>
<g id="Union" style="mix-blend-mode:screen">
<path fill-rule="evenodd" clip-rule="evenodd" d="M619.765 279.24C603.495 277.369 589.157 285.648 592.398 295.041L600.498 318.52C604.13 329.048 626.626 332.986 639.774 325.395L641.153 324.599L709.852 364.263L735.5 362.392L739.198 347.319L670.499 307.656L672.34 306.593C685.488 299.002 678.667 286.014 660.431 283.917L619.765 279.24Z" fill="white"/>
</g>
<g id="Union_2" style="mix-blend-mode:screen">
<path fill-rule="evenodd" clip-rule="evenodd" d="M333.862 349.614C350.199 350.751 364.151 341.835 360.49 332.597L351.34 309.507C347.237 299.153 324.586 296.232 311.794 304.408L310.452 305.265L240.036 268.737L214.499 271.761L211.483 286.985L281.899 323.513L280.108 324.658C267.316 332.833 274.715 345.501 293.026 346.774L333.862 349.614Z" fill="white"/>
</g>
</g>
<defs>
<linearGradient id="paint0_linear_171_24" x1="217.344" y1="531.015" x2="331.785" y2="353.16" gradientUnits="userSpaceOnUse">
<stop offset="0.0816505" stop-color="white" stop-opacity="0"/>
<stop offset="0.257274" stop-color="white" stop-opacity="0"/>
<stop offset="0.629114" stop-color="#BBFAE9" stop-opacity="0.286412"/>
<stop offset="1" stop-color="#13EDB1"/>
</linearGradient>
<linearGradient id="paint1_linear_171_24" x1="779.191" y1="526.405" x2="687.744" y2="349.095" gradientUnits="userSpaceOnUse">
<stop offset="0.0816505" stop-color="white" stop-opacity="0"/>
<stop offset="0.257274" stop-color="white" stop-opacity="0"/>
<stop offset="0.629114" stop-color="#BBFAE9" stop-opacity="0.286412"/>
<stop offset="1" stop-color="#13EDB1"/>
</linearGradient>
<linearGradient id="paint2_linear_171_24" x1="246.922" y1="477.538" x2="356.204" y2="29.1025" gradientUnits="userSpaceOnUse">
<stop stop-color="white" stop-opacity="0.49"/>
<stop offset="1" stop-color="#13EDB1" stop-opacity="0.69"/>
</linearGradient>
<linearGradient id="paint3_linear_171_24" x1="241.852" y1="0" x2="241.852" y2="477.538" gradientUnits="userSpaceOnUse">
<stop offset="1" stop-color="#13B3D3"/>
</linearGradient>
<linearGradient id="paint4_linear_171_24" x1="183.297" y1="203.028" x2="36.1973" y2="1.6688" gradientUnits="userSpaceOnUse">
<stop stop-color="#13EDB1" stop-opacity="0.88"/>
<stop offset="1" stop-color="#13B3D3" stop-opacity="0.88"/>
</linearGradient>
<linearGradient id="paint5_linear_171_24" x1="183.297" y1="203.028" x2="36.1973" y2="1.6688" gradientUnits="userSpaceOnUse">
<stop stop-color="#13EDB1" stop-opacity="0.88"/>
<stop offset="1" stop-color="#13B3D3" stop-opacity="0.88"/>
</linearGradient>
<linearGradient id="paint6_linear_171_24" x1="183.297" y1="203.028" x2="36.1973" y2="1.6688" gradientUnits="userSpaceOnUse">
<stop stop-color="#13EDB1" stop-opacity="0.88"/>
<stop offset="1" stop-color="#13B3D3" stop-opacity="0.88"/>
</linearGradient>
<linearGradient id="paint7_linear_171_24" x1="77.7033" y1="203.028" x2="209.774" y2="141.866" gradientUnits="userSpaceOnUse">
<stop stop-color="#13EDB1" stop-opacity="0.88"/>
<stop offset="1" stop-color="#13B3D3" stop-opacity="0.88"/>
</linearGradient>
<linearGradient id="paint8_linear_171_24" x1="183.297" y1="203.028" x2="36.1973" y2="1.6688" gradientUnits="userSpaceOnUse">
<stop stop-color="#13EDB1" stop-opacity="0.88"/>
<stop offset="1" stop-color="#13B3D3" stop-opacity="0.88"/>
</linearGradient>
<linearGradient id="paint9_linear_171_24" x1="183.297" y1="203.028" x2="36.1973" y2="1.6688" gradientUnits="userSpaceOnUse">
<stop stop-color="#13EDB1" stop-opacity="0.71"/>
<stop offset="1" stop-color="#13B3D3" stop-opacity="0.71"/>
</linearGradient>
</defs>
</svg>
